X: 31844
T: Paudy Scully's
R: slide
M: 12/8
K: Gmajor
|:G|d2 B B^AB g2 e f2 e|d2 B B^AB e3 efe|
d2 B B^AB g2 e f2 e|d2 B ABA G3 G2-:|
g|fga e2 g fef gfe|d2 B B^AB e3- e2 g|
fga e2 g fef gfe|d2 B ABA G3 G2 g|
fga e2 g fga e3|d2 B B^AB e3- e2 f|
g2 f g2 f g2 f g2 e|d2 B ABA G3 G2-||

